img/Medium.svg

<svg width="166" height="166" viewBox="0 0 166 166" fill="none" xmlns="http://www.w3.org/2000/svg">
<circle cx="83" cy="83" r="83" fill="#FFEAC0"/>
<g clip-path="url(#clip0)">
<path d="M34.4131 56.6888C34.8673 56.6888 35.2354 56.3199 35.2354 55.8649C35.2354 55.41 34.8673 55.0411 34.4131 55.0411C33.959 55.0411 33.5908 55.41 33.5908 55.8649C33.5908 56.3199 33.959 56.6888 34.4131 56.6888Z" fill="#7D7B8C"/>
<path d="M37.2325 56.6888C37.6866 56.6888 38.0548 56.3199 38.0548 55.8649C38.0548 55.41 37.6866 55.0411 37.2325 55.0411C36.7783 55.0411 36.4102 55.41 36.4102 55.8649C36.4102 56.3199 36.7783 56.6888 37.2325 56.6888Z" fill="#7D7B8C"/>
<path d="M40.0518 56.6888C40.5059 56.6888 40.8741 56.3199 40.8741 55.8649C40.8741 55.41 40.5059 55.0411 40.0518 55.0411C39.5977 55.0411 39.2295 55.41 39.2295 55.8649C39.2295 56.3199 39.5977 56.6888 40.0518 56.6888Z" fill="#7D7B8C"/>
<path d="M118.054 100.939H39.4644V110.236H118.054V100.939Z" fill="#F2F2F2"/>
<path d="M125.043 68.8693H78.2893V92.642H125.043V68.8693Z" fill="#F2F2F2"/>
<path d="M86.4956 90.4649L97.0848 72.7531L108.069 90.4649" fill="#FDB92D"/>
<path d="M102.547 81.403L104.662 75.8717L116.644 90.4648H102.489L102.547 81.403Z" fill="#FDB92D"/>
<path d="M100.321 79.2053C100.65 79.0035 100.936 78.7387 101.163 78.426C101.39 78.1133 101.553 77.7589 101.644 77.3831C101.734 77.0072 101.749 76.6172 101.689 76.2353C101.628 75.8535 101.493 75.4874 101.292 75.1578C101.09 74.8282 100.825 74.5417 100.513 74.3146C100.201 74.0875 99.8469 73.9243 99.4717 73.8343C99.0964 73.7443 98.7071 73.7292 98.326 73.79C97.9449 73.8508 97.5795 73.9863 97.2507 74.1886" fill="#FDB92D"/>
<path d="M130.858 53.7466H32.1812V118.003H130.858V53.7466Z" stroke="#3F3D56" stroke-miterlimit="10"/>
<path d="M32.1812 57.3165H130.858" stroke="#3F3D56" stroke-width="0.5" stroke-miterlimit="10"/>
<path d="M34.648 56.3357C35.1021 56.3357 35.4703 55.9669 35.4703 55.5119C35.4703 55.0569 35.1021 54.6881 34.648 54.6881C34.1938 54.6881 33.8257 55.0569 33.8257 55.5119C33.8257 55.9669 34.1938 56.3357 34.648 56.3357Z" stroke="#3F3D56" stroke-width="0.5" stroke-miterlimit="10"/>
<path d="M37.4676 56.3357C37.9217 56.3357 38.2899 55.9669 38.2899 55.5119C38.2899 55.0569 37.9217 54.6881 37.4676 54.6881C37.0134 54.6881 36.6453 55.0569 36.6453 55.5119C36.6453 55.9669 37.0134 56.3357 37.4676 56.3357Z" stroke="#3F3D56" stroke-width="0.5" stroke-miterlimit="10"/>
<path d="M40.2867 56.3357C40.7408 56.3357 41.109 55.9669 41.109 55.5119C41.109 55.0569 40.7408 54.6881 40.2867 54.6881C39.8325 54.6881 39.4644 55.0569 39.4644 55.5119C39.4644 55.9669 39.8325 56.3357 40.2867 56.3357Z" stroke="#3F3D56" stroke-width="0.5" stroke-miterlimit="10"/>
<path d="M68.1278 71.4584H34.0608V73.9298H68.1278V71.4584Z" fill="#F2F2F2"/>
<path d="M68.1278 77.3428H34.0608V79.8142H68.1278V77.3428Z" fill="#F2F2F2"/>
<path d="M68.1278 83.2271H34.0608V85.6985H68.1278V83.2271Z" fill="#F2F2F2"/>
<path d="M69.3027 70.6345H35.2356V73.1059H69.3027V70.6345Z" stroke="#3F3D56" stroke-width="0.5" stroke-miterlimit="10"/>
<path d="M69.3027 76.519H35.2356V78.9905H69.3027V76.519Z" stroke="#3F3D56" stroke-width="0.5" stroke-miterlimit="10"/>
<path d="M69.3027 82.4033H35.2356V84.8747H69.3027V82.4033Z" stroke="#3F3D56" stroke-width="0.5" stroke-miterlimit="10"/>
<path d="M127.804 65.8683H81.0498V89.641H127.804V65.8683Z" stroke="#3F3D56" stroke-width="0.5" stroke-miterlimit="10"/>
<path d="M120.814 98.8206H42.2251V108.118H120.814V98.8206Z" stroke="#3F3D56" stroke-width="0.5" stroke-miterlimit="10"/>
<path d="M87.083 89.641L97.6722 71.9292L108.656 89.641" stroke="#3F3D56" stroke-width="0.3" stroke-miterlimit="10"/>
<path d="M102.9 80.3438L105.014 74.8125L116.996 89.641" stroke="#3F3D56" stroke-width="0.3" stroke-miterlimit="10"/>
<path d="M101.143 77.5577C101.472 77.3559 101.759 77.0911 101.985 76.7784C102.212 76.4658 102.376 76.1114 102.466 75.7355C102.556 75.3596 102.571 74.9696 102.511 74.5878C102.45 74.2059 102.316 73.8398 102.114 73.5102C101.912 73.1806 101.648 72.8941 101.335 72.667C101.023 72.4399 100.669 72.2767 100.294 72.1867C99.9187 72.0967 99.5293 72.0817 99.1483 72.1424C98.7672 72.2032 98.4018 72.3387 98.073 72.541" stroke="#3F3D56" stroke-width="0.3" stroke-miterlimit="10"/>
</g>
<defs>
<clipPath id="clip0">
<rect width="128.357" height="72.2007" fill="white" transform="translate(19.1304 53.6877)"/>
</clipPath>
</defs>
</svg>

<svg width="166" height="166" fill="none" xmlns="http://www.w3.org/2000/svg"><circle cx="83" cy="83" r="83" fill="#FFEAC0"/><g clip-path="url(#clip0)"><path d="M34.413 56.689a.823.823 0 10-.001-1.646.823.823 0 00.001 1.646zm2.82 0a.823.823 0 10-.002-1.646.823.823 0 00.002 1.646zm2.819 0a.823.823 0 10-.002-1.646.823.823 0 00.002 1.646z" fill="#7D7B8C"/><path d="M118.054 100.939h-78.59v9.297h78.59v-9.297zm6.989-32.069H78.289v23.772h46.754V68.869z" fill="#F2F2F2"/><path d="M86.496 90.465l10.589-17.712 10.984 17.712" fill="#FDB92D"/><path d="M102.547 81.403l2.115-5.531 11.982 14.593h-14.155l.058-9.062zm-2.226-2.198a2.94 2.94 0 001.368-2.97 2.95 2.95 0 00-2.217-2.401 2.932 2.932 0 00-2.221.355" fill="#FDB92D"/><path d="M130.858 53.747H32.181v64.256h98.677V53.747z" stroke="#3F3D56" stroke-miterlimit="10"/><path d="M32.181 57.316h98.677m-96.21-.98a.823.823 0 10-.002-1.646.823.823 0 00.002 1.646zm2.82 0a.823.823 0 10-.002-1.646.823.823 0 00.002 1.646zm2.819 0a.823.823 0 10-.002-1.646.823.823 0 00.002 1.646z" stroke="#3F3D56" stroke-width=".5" stroke-miterlimit="10"/><path d="M68.128 71.458H34.06v2.472h34.067v-2.472zm0 5.885H34.06v2.471h34.067v-2.471zm0 5.884H34.06v2.471h34.067v-2.47z" fill="#F2F2F2"/><path d="M69.303 70.635H35.236v2.47h34.067v-2.47zm0 5.884H35.236v2.471h34.067v-2.47zm0 5.884H35.236v2.472h34.067v-2.472zm58.501-16.535H81.05v23.773h46.754V65.868zm-6.99 32.952H42.225v9.298h78.589v-9.297z" stroke="#3F3D56" stroke-width=".5" stroke-miterlimit="10"/><path d="M87.083 89.641l10.59-17.712 10.983 17.712m-5.756-9.297l2.114-5.531 11.982 14.828" stroke="#3F3D56" stroke-width=".3" stroke-miterlimit="10"/><path d="M101.143 77.558a2.942 2.942 0 00-1.995-5.415c-.38.06-.746.196-1.075.398" stroke="#3F3D56" stroke-width=".3" stroke-miterlimit="10"/></g><defs><clipPath id="clip0"><path fill="#fff" transform="translate(19.13 53.688)" d="M0 0h128.357v72.201H0z"/></clipPath></defs></svg>
